;Generated by Toolpath Enhancing Algorithm
T1
M190 S45
M104 S210
G28
G1 Z15 F600
M82
;LAYER:0
;TYPE:WALL-OUTER
G1 F1000
G1 X129.8 Y94.2 Z0.2
G1 X129.8 Y105.8 E0.58
G1 F1000
G1 X129.8 Y105.8 Z0.2
G1 X70.2 Y105.8 E3.56
G1 F1000
G1 X70.59 Y105.41 Z0.2
G1 X70.59 Y94.59 E4.101
G1 F1000
G1 X70.59 Y94.59 Z0.2
G1 X129.41 Y94.59 E7.042
G1 F1000
G1 X129.41 Y94.59 Z0.2
G1 X129.41 Y105.41 E7.583
G1 F1000
G1 X129.41 Y105.41 Z0.2
G1 X70.59 Y105.41 E10.524
G1 F1000
G1 X71.287 Y105.228 Z0.2
G1 X70.77 Y104.711 E10.5606
G1 F1000
G1 X70.77 Y104.145 Z0.2
G1 X71.853 Y105.228 E10.6371
G1 F1000
G1 X72.419 Y105.228 Z0.2
G1 X70.77 Y103.579 E10.7537
G1 F1000
G1 X70.77 Y103.014 Z0.2
G1 X72.984 Y105.228 E10.9103
G1 F1000
G1 X73.55 Y105.228 Z0.2
G1 X70.77 Y102.448 E11.1069
G1 F1000
G1 X70.77 Y101.882 Z0.2
G1 X74.116 Y105.228 E11.3435
G1 F1000
G1 X74.681 Y105.228 Z0.2
G1 X70.77 Y101.317 E11.62
G1 F1000
G1 X70.77 Y100.751 Z0.2
G1 X75.247 Y105.228 E11.9366
G1 F1000
G1 X75.813 Y105.228 Z0.2
G1 X70.77 Y100.185 E12.2932
G1 F1000
G1 X70.77 Y99.62 Z0.2
G1 X76.378 Y105.228 E12.6897
G1 F1000
G1 X76.944 Y105.228 Z0.2
G1 X70.77 Y99.054 E13.1263
G1 F1000
G1 X70.77 Y98.488 Z0.2
G1 X77.51 Y105.228 E13.6029
G1 F1000
G1 X78.075 Y105.228 Z0.2
G1 X70.77 Y97.922 E14.1195
G1 F1000
G1 X70.77 Y97.357 Z0.2
G1 X78.641 Y105.228 E14.676
G1 F1000
G1 X79.207 Y105.228 Z0.2
G1 X70.77 Y96.791 E15.2726
G1 F1000
G1 X70.77 Y96.225 Z0.2
G1 X79.772 Y105.228 E15.9092
G1 F1000
G1 X80.338 Y105.228 Z0.2
G1 X70.77 Y95.66 E16.5857
G1 F1000
G1 X70.77 Y95.094 Z0.2
G1 X80.904 Y105.228 E17.3023
G1 F1000
G1 X81.47 Y105.228 Z0.2
G1 X71.011 Y94.769 E18.0419
G1 F1000
G1 X71.576 Y94.769 Z0.2
G1 X82.035 Y105.228 E18.7815
G1 F1000
G1 X82.601 Y105.228 Z0.2
G1 X72.142 Y94.769 E19.521
G1 F1000
G1 X72.708 Y94.769 Z0.2
G1 X83.167 Y105.228 E20.2606
G1 F1000
G1 X83.732 Y105.228 Z0.2
G1 X73.273 Y94.769 E21.0001
G1 F1000
G1 X73.839 Y94.769 Z0.2
G1 X84.298 Y105.228 E21.7397
G1 F1000
G1 X84.864 Y105.228 Z0.2
G1 X74.405 Y94.769 E22.4793
G1 F1000
G1 X74.97 Y94.769 Z0.2
G1 X85.429 Y105.228 E23.2188
G1 F1000
G1 X85.995 Y105.228 Z0.2
G1 X75.536 Y94.769 E23.9584
G1 F1000
G1 X76.102 Y94.769 Z0.2
G1 X86.561 Y105.228 E24.698
G1 F1000
G1 X87.126 Y105.228 Z0.2
G1 X76.668 Y94.769 E25.4375
G1 F1000
G1 X77.233 Y94.769 Z0.2
G1 X87.692 Y105.228 E26.177
G1 F1000
G1 X88.258 Y105.228 Z0.2
G1 X77.799 Y94.769 E26.9166
G1 F1000
G1 X78.365 Y94.769 Z0.2
G1 X88.823 Y105.228 E27.6561
G1 F1000
G1 X89.389 Y105.228 Z0.2
G1 X78.93 Y94.769 E28.3957
G1 F1000
G1 X79.496 Y94.769 Z0.2
G1 X89.955 Y105.228 E29.1353
G1 F1000
G1 X90.52 Y105.228 Z0.2
G1 X80.062 Y94.769 E29.8748
G1 F1000
G1 X80.627 Y94.769 Z0.2
G1 X91.086 Y105.228 E30.6144
G1 F1000
G1 X91.652 Y105.228 Z0.2
G1 X81.193 Y94.769 E31.3539
G1 F1000
G1 X81.759 Y94.769 Z0.2
G1 X92.218 Y105.228 E32.0935
G1 F1000
G1 X92.783 Y105.228 Z0.2
G1 X82.324 Y94.769 E32.833
G1 F1000
G1 X82.89 Y94.769 Z0.2
G1 X93.349 Y105.228 E33.5726
G1 F1000
G1 X93.915 Y105.228 Z0.2
G1 X83.456 Y94.769 E34.3122
G1 F1000
G1 X84.021 Y94.769 Z0.2
G1 X94.48 Y105.228 E35.0517
G1 F1000
G1 X95.046 Y105.228 Z0.2
G1 X84.587 Y94.769 E35.7913
G1 F1000
G1 X85.153 Y94.769 Z0.2
G1 X95.612 Y105.228 E36.5309
G1 F1000
G1 X96.177 Y105.228 Z0.2
G1 X85.719 Y94.769 E37.2704
G1 F1000
G1 X86.284 Y94.769 Z0.2
G1 X96.743 Y105.228 E38.0099
G1 F1000
G1 X97.309 Y105.228 Z0.2
G1 X86.85 Y94.769 E38.7495
G1 F1000
G1 X87.416 Y94.769 Z0.2
G1 X97.874 Y105.228 E39.489
G1 F1000
G1 X98.44 Y105.228 Z0.2
G1 X87.981 Y94.769 E40.2286
G1 F1000
G1 X88.547 Y94.769 Z0.2
G1 X99.006 Y105.228 E40.9682
G1 F1000
G1 X99.571 Y105.228 Z0.2
G1 X89.113 Y94.769 E41.7077
G1 F1000
G1 X89.678 Y94.769 Z0.2
G1 X100.138 Y105.229 E42.4473
G1 F1000
G1 X100.704 Y105.229 Z0.2
G1 X90.244 Y94.769 E43.187
G1 F1000
G1 X90.81 Y94.769 Z0.2
G1 X101.269 Y105.229 E43.9266
G1 F1000
G1 X101.835 Y105.229 Z0.2
G1 X91.375 Y94.769 E44.6662
G1 F1000
G1 X91.941 Y94.769 Z0.2
G1 X102.401 Y105.229 E45.4058
G1 F1000
G1 X102.966 Y105.229 Z0.2
G1 X92.507 Y94.769 E46.1454
G1 F1000
G1 X93.072 Y94.769 Z0.2
G1 X103.532 Y105.229 E46.8851
G1 F1000
G1 X104.098 Y105.229 Z0.2
G1 X93.638 Y94.769 E47.6247
G1 F1000
G1 X94.204 Y94.769 Z0.2
G1 X104.663 Y105.229 E48.3643
G1 F1000
G1 X105.229 Y105.229 Z0.2
G1 X94.769 Y94.769 E49.1039
G1 F1000
G1 X95.335 Y94.769 Z0.2
G1 X105.795 Y105.229 E49.8436
G1 F1000
G1 X106.36 Y105.229 Z0.2
G1 X95.901 Y94.769 E50.5832
G1 F1000
G1 X96.467 Y94.769 Z0.2
G1 X106.926 Y105.229 E51.3228
G1 F1000
G1 X107.492 Y105.229 Z0.2
G1 X97.032 Y94.769 E52.0624
G1 F1000
G1 X97.598 Y94.769 Z0.2
G1 X108.057 Y105.229 E52.802
G1 F1000
G1 X108.623 Y105.229 Z0.2
G1 X98.164 Y94.769 E53.5416
G1 F1000
G1 X98.729 Y94.769 Z0.2
G1 X109.189 Y105.229 E54.2812
G1 F1000
G1 X109.754 Y105.229 Z0.2
G1 X99.295 Y94.769 E55.0208
G1 F1000
G1 X99.861 Y94.769 Z0.2
G1 X110.32 Y105.229 E55.7604
G1 F1000
G1 X110.886 Y105.229 Z0.2
G1 X100.426 Y94.769 E56.5
G1 F1000
G1 X100.992 Y94.769 Z0.2
G1 X111.452 Y105.229 E57.2397
G1 F1000
G1 X112.017 Y105.229 Z0.2
G1 X101.558 Y94.769 E57.9793
G1 F1000
G1 X102.123 Y94.769 Z0.2
G1 X112.583 Y105.229 E58.7189
G1 F1000
G1 X113.149 Y105.229 Z0.2
G1 X102.689 Y94.769 E59.4585
G1 F1000
G1 X103.255 Y94.769 Z0.2
G1 X113.714 Y105.229 E60.1981
G1 F1000
G1 X114.28 Y105.229 Z0.2
G1 X103.82 Y94.769 E60.9378
G1 F1000
G1 X104.386 Y94.769 Z0.2
G1 X114.846 Y105.229 E61.6774
G1 F1000
G1 X115.411 Y105.229 Z0.2
G1 X104.952 Y94.769 E62.417
G1 F1000
G1 X105.518 Y94.769 Z0.2
G1 X115.977 Y105.229 E63.1566
G1 F1000
G1 X116.543 Y105.229 Z0.2
G1 X106.083 Y94.769 E63.8962
G1 F1000
G1 X106.649 Y94.769 Z0.2
G1 X117.108 Y105.229 E64.6358
G1 F1000
G1 X117.674 Y105.229 Z0.2
G1 X107.215 Y94.769 E65.3754
G1 F1000
G1 X107.78 Y94.769 Z0.2
G1 X118.24 Y105.229 E66.1151
G1 F1000
G1 X118.805 Y105.229 Z0.2
G1 X108.346 Y94.769 E66.8547
G1 F1000
G1 X108.912 Y94.769 Z0.2
G1 X119.371 Y105.229 E67.5943
G1 F1000
G1 X119.937 Y105.229 Z0.2
G1 X109.477 Y94.769 E68.3339
G1 F1000
G1 X110.043 Y94.769 Z0.2
G1 X120.503 Y105.229 E69.0735
G1 F1000
G1 X121.068 Y105.229 Z0.2
G1 X110.609 Y94.769 E69.8131
G1 F1000
G1 X111.174 Y94.769 Z0.2
G1 X121.634 Y105.229 E70.5528
G1 F1000
G1 X122.2 Y105.229 Z0.2
G1 X111.74 Y94.769 E71.2924
G1 F1000
G1 X112.306 Y94.769 Z0.2
G1 X122.765 Y105.229 E72.032
G1 F1000
G1 X123.331 Y105.229 Z0.2
G1 X112.871 Y94.769 E72.7716
G1 F1000
G1 X113.437 Y94.769 Z0.2
G1 X123.897 Y105.229 E73.5113
G1 F1000
G1 X124.462 Y105.229 Z0.2
G1 X114.003 Y94.769 E74.2509
G1 F1000
G1 X114.568 Y94.769 Z0.2
G1 X125.028 Y105.229 E74.9905
G1 F1000
G1 X125.594 Y105.229 Z0.2
G1 X115.134 Y94.769 E75.7301
G1 F1000
G1 X115.7 Y94.769 Z0.2
G1 X126.159 Y105.229 E76.4697
G1 F1000
G1 X126.725 Y105.229 Z0.2
G1 X116.266 Y94.769 E77.2093
G1 F1000
G1 X116.831 Y94.769 Z0.2
G1 X127.291 Y105.229 E77.949
G1 F1000
G1 X127.856 Y105.229 Z0.2
G1 X117.397 Y94.769 E78.6886
G1 F1000
G1 X117.963 Y94.769 Z0.2
G1 X128.422 Y105.229 E79.4282
G1 F1000
G1 X128.988 Y105.229 Z0.2
G1 X118.528 Y94.769 E80.1678
G1 F1000
G1 X119.094 Y94.769 Z0.2
G1 X129.229 Y104.904 E80.8844
G1 F1000
G1 X129.229 Y104.339 Z0.2
G1 X119.66 Y94.769 E81.5611
G1 F1000
G1 X120.225 Y94.769 Z0.2
G1 X129.229 Y103.773 E82.1978
G1 F1000
G1 X129.229 Y103.207 Z0.2
G1 X120.791 Y94.769 E82.7944
G1 F1000
G1 X121.357 Y94.769 Z0.2
G1 X129.229 Y102.642 E83.3511
G1 F1000
G1 X129.229 Y102.076 Z0.2
G1 X121.922 Y94.769 E83.8678
G1 F1000
G1 X122.488 Y94.769 Z0.2
G1 X129.229 Y101.51 E84.3445
G1 F1000
G1 X129.229 Y100.945 Z0.2
G1 X123.054 Y94.769 E84.7811
G1 F1000
G1 X123.619 Y94.769 Z0.2
G1 X129.229 Y100.379 E85.1778
G1 F1000
G1 X129.229 Y99.813 Z0.2
G1 X124.185 Y94.769 E85.5345
G1 F1000
G1 X124.751 Y94.769 Z0.2
G1 X129.229 Y99.248 E85.8512
G1 F1000
G1 X129.229 Y98.682 Z0.2
G1 X125.316 Y94.769 E86.1279
G1 F1000
G1 X125.882 Y94.769 Z0.2
G1 X129.229 Y98.116 E86.3645
G1 F1000
G1 X129.229 Y97.551 Z0.2
G1 X126.448 Y94.769 E86.5612
G1 F1000
G1 X127.014 Y94.769 Z0.2
G1 X129.229 Y96.985 E86.7179
G1 F1000
G1 X129.229 Y96.419 Z0.2
G1 X127.579 Y94.769 E86.8345
G1 F1000
G1 X128.145 Y94.769 Z0.2
G1 X129.229 Y95.853 E86.9112
G1 F1000
G1 X129.229 Y95.288 Z0.2
G1 X128.711 Y94.769 E86.9479
;TYPE:FILL
;LAYER:1
;TYPE:WALL-OUTER
G1 F1000
G1 X70.2 Y105.8 Z0.4
G1 X70.2 Y94.2 E87.5279
G1 F1000
G1 X70.2 Y94.2 Z0.4
G1 X129.8 Y94.2 E90.5079
G1 F1000
G1 X129.8 Y94.2 Z0.4
G1 X129.8 Y105.8 E91.0879
G1 F1000
G1 X129.8 Y105.8 Z0.4
G1 X70.2 Y105.8 E94.0679
G1 F1000
G1 X70.59 Y105.41 Z0.4
G1 X70.59 Y94.59 E94.6089
G1 F1000
G1 X70.59 Y94.59 Z0.4
G1 X129.41 Y94.59 E97.5499
G1 F1000
G1 X129.41 Y94.59 Z0.4
G1 X129.41 Y105.41 E98.0909
G1 F1000
G1 X129.41 Y105.41 Z0.4
G1 X70.59 Y105.41 E101.032
G1 F1000
G1 X70.77 Y94.975 Z0.4
G1 X70.976 Y94.769 E101.046
G1 F1000
G1 X71.542 Y94.769 Z0.4
G1 X70.77 Y95.541 E101.101
G1 F1000
G1 X70.77 Y96.107 Z0.4
G1 X72.107 Y94.769 E101.196
G1 F1000
G1 X72.673 Y94.769 Z0.4
G1 X70.77 Y96.672 E101.33
G1 F1000
G1 X70.77 Y97.238 Z0.4
G1 X73.239 Y94.769 E101.505
G1 F1000
G1 X73.804 Y94.769 Z0.4
G1 X70.77 Y97.804 E101.719
G1 F1000
G1 X70.77 Y98.369 Z0.4
G1 X74.37 Y94.769 E101.974
G1 F1000
G1 X74.936 Y94.769 Z0.4
G1 X70.77 Y98.935 E102.268
G1 F1000
G1 X70.77 Y99.501 Z0.4
G1 X75.502 Y94.769 E102.603
G1 F1000
G1 X76.067 Y94.769 Z0.4
G1 X70.77 Y100.066 E102.978
G1 F1000
G1 X70.77 Y100.632 Z0.4
G1 X76.633 Y94.769 E103.392
G1 F1000
G1 X77.199 Y94.769 Z0.4
G1 X70.77 Y101.198 E103.847
G1 F1000
G1 X70.77 Y101.763 Z0.4
G1 X77.764 Y94.769 E104.341
G1 F1000
G1 X78.33 Y94.769 Z0.4
G1 X70.77 Y102.329 E104.876
G1 F1000
G1 X70.77 Y102.895 Z0.4
G1 X78.896 Y94.769 E105.45
G1 F1000
G1 X79.461 Y94.769 Z0.4
G1 X70.77 Y103.461 E106.065
G1 F1000
G1 X70.77 Y104.026 Z0.4
G1 X80.027 Y94.769 E106.72
G1 F1000
G1 X80.593 Y94.769 Z0.4
G1 X70.77 Y104.592 E107.414
G1 F1000
G1 X70.77 Y105.158 Z0.4
G1 X81.158 Y94.769 E108.149
G1 F1000
G1 X81.724 Y94.769 Z0.4
G1 X71.264 Y105.229 E108.888
G1 F1000
G1 X71.83 Y105.229 Z0.4
G1 X82.29 Y94.769 E109.628
G1 F1000
G1 X82.855 Y94.769 Z0.4
G1 X72.395 Y105.229 E110.368
G1 F1000
G1 X72.961 Y105.229 Z0.4
G1 X83.421 Y94.769 E111.107
G1 F1000
G1 X83.987 Y94.769 Z0.4
G1 X73.527 Y105.229 E111.847
G1 F1000
G1 X74.092 Y105.229 Z0.4
G1 X84.553 Y94.769 E112.587
G1 F1000
G1 X85.118 Y94.769 Z0.4
G1 X74.658 Y105.229 E113.326
G1 F1000
G1 X75.224 Y105.229 Z0.4
G1 X85.684 Y94.769 E114.066
G1 F1000
G1 X86.25 Y94.769 Z0.4
G1 X75.789 Y105.229 E114.806
G1 F1000
G1 X76.355 Y105.229 Z0.4
G1 X86.815 Y94.769 E115.545
G1 F1000
G1 X87.381 Y94.769 Z0.4
G1 X76.921 Y105.229 E116.285
G1 F1000
G1 X77.486 Y105.229 Z0.4
G1 X87.947 Y94.769 E117.025
G1 F1000
G1 X88.512 Y94.769 Z0.4
G1 X78.052 Y105.229 E117.764
G1 F1000
G1 X78.618 Y105.229 Z0.4
G1 X89.078 Y94.769 E118.504
G1 F1000
G1 X89.644 Y94.769 Z0.4
G1 X79.183 Y105.229 E119.243
G1 F1000
G1 X79.749 Y105.229 Z0.4
G1 X90.209 Y94.769 E119.983
G1 F1000
G1 X90.775 Y94.769 Z0.4
G1 X80.315 Y105.229 E120.723
G1 F1000
G1 X80.88 Y105.229 Z0.4
G1 X91.341 Y94.769 E121.462
G1 F1000
G1 X91.906 Y94.769 Z0.4
G1 X81.446 Y105.229 E122.202
G1 F1000
G1 X82.012 Y105.229 Z0.4
G1 X92.472 Y94.769 E122.942
G1 F1000
G1 X93.038 Y94.769 Z0.4
G1 X82.578 Y105.229 E123.681
G1 F1000
G1 X83.143 Y105.229 Z0.4
G1 X93.603 Y94.769 E124.421
G1 F1000
G1 X94.169 Y94.769 Z0.4
G1 X83.709 Y105.229 E125.161
G1 F1000
G1 X84.275 Y105.229 Z0.4
G1 X94.735 Y94.769 E125.9
G1 F1000
G1 X95.301 Y94.769 Z0.4
G1 X84.84 Y105.229 E126.64
G1 F1000
G1 X85.406 Y105.229 Z0.4
G1 X95.866 Y94.769 E127.38
G1 F1000
G1 X96.432 Y94.769 Z0.4
G1 X85.972 Y105.229 E128.119
G1 F1000
G1 X86.537 Y105.229 Z0.4
G1 X96.998 Y94.769 E128.859
G1 F1000
G1 X97.563 Y94.769 Z0.4
G1 X87.103 Y105.229 E129.598
G1 F1000
G1 X87.669 Y105.229 Z0.4
G1 X98.129 Y94.769 E130.338
G1 F1000
G1 X98.695 Y94.769 Z0.4
G1 X88.234 Y105.229 E131.078
G1 F1000
G1 X88.8 Y105.229 Z0.4
G1 X99.26 Y94.769 E131.817
G1 F1000
G1 X99.826 Y94.769 Z0.4
G1 X89.366 Y105.229 E132.557
G1 F1000
G1 X89.931 Y105.229 Z0.4
G1 X100.392 Y94.769 E133.297
G1 F1000
G1 X100.957 Y94.769 Z0.4
G1 X90.497 Y105.229 E134.036
G1 F1000
G1 X91.063 Y105.229 Z0.4
G1 X101.523 Y94.769 E134.776
G1 F1000
G1 X102.089 Y94.769 Z0.4
G1 X91.629 Y105.229 E135.516
G1 F1000
G1 X92.194 Y105.229 Z0.4
G1 X102.654 Y94.769 E136.255
G1 F1000
G1 X103.22 Y94.769 Z0.4
G1 X92.76 Y105.229 E136.995
G1 F1000
G1 X93.326 Y105.229 Z0.4
G1 X103.786 Y94.769 E137.734
G1 F1000
G1 X104.351 Y94.769 Z0.4
G1 X93.891 Y105.229 E138.474
G1 F1000
G1 X94.457 Y105.229 Z0.4
G1 X104.917 Y94.769 E139.214
G1 F1000
G1 X105.483 Y94.769 Z0.4
G1 X95.023 Y105.229 E139.953
G1 F1000
G1 X95.588 Y105.229 Z0.4
G1 X106.049 Y94.769 E140.693
G1 F1000
G1 X106.614 Y94.769 Z0.4
G1 X96.154 Y105.229 E141.433
G1 F1000
G1 X96.72 Y105.229 Z0.4
G1 X107.18 Y94.769 E142.172
G1 F1000
G1 X107.746 Y94.769 Z0.4
G1 X97.285 Y105.229 E142.912
G1 F1000
G1 X97.851 Y105.229 Z0.4
G1 X108.311 Y94.769 E143.652
G1 F1000
G1 X108.877 Y94.769 Z0.4
G1 X98.417 Y105.229 E144.391
G1 F1000
G1 X98.982 Y105.229 Z0.4
G1 X109.443 Y94.769 E145.131
G1 F1000
G1 X110.008 Y94.769 Z0.4
G1 X99.548 Y105.229 E145.871
G1 F1000
G1 X100.113 Y105.23 Z0.4
G1 X110.574 Y94.769 E146.61
G1 F1000
G1 X111.14 Y94.769 Z0.4
G1 X100.679 Y105.23 E147.35
G1 F1000
G1 X101.244 Y105.23 Z0.4
G1 X111.705 Y94.769 E148.09
G1 F1000
G1 X112.271 Y94.769 Z0.4
G1 X101.81 Y105.23 E148.829
G1 F1000
G1 X102.376 Y105.23 Z0.4
G1 X112.837 Y94.769 E149.569
G1 F1000
G1 X113.402 Y94.769 Z0.4
G1 X102.942 Y105.23 E150.309
G1 F1000
G1 X103.507 Y105.23 Z0.4
G1 X113.968 Y94.769 E151.048
G1 F1000
G1 X114.534 Y94.769 Z0.4
G1 X104.073 Y105.23 E151.788
G1 F1000
G1 X104.639 Y105.23 Z0.4
G1 X115.1 Y94.769 E152.528
G1 F1000
G1 X115.665 Y94.769 Z0.4
G1 X105.204 Y105.23 E153.268
G1 F1000
G1 X105.77 Y105.23 Z0.4
G1 X116.231 Y94.769 E154.007
G1 F1000
G1 X116.797 Y94.769 Z0.4
G1 X106.336 Y105.23 E154.747
G1 F1000
G1 X106.901 Y105.23 Z0.4
G1 X117.362 Y94.769 E155.487
G1 F1000
G1 X117.928 Y94.769 Z0.4
G1 X107.467 Y105.23 E156.226
G1 F1000
G1 X108.033 Y105.23 Z0.4
G1 X118.494 Y94.769 E156.966
G1 F1000
G1 X119.059 Y94.769 Z0.4
G1 X108.598 Y105.23 E157.706
G1 F1000
G1 X109.164 Y105.23 Z0.4
G1 X119.625 Y94.769 E158.445
G1 F1000
G1 X120.191 Y94.769 Z0.4
G1 X109.73 Y105.23 E159.185
G1 F1000
G1 X110.295 Y105.23 Z0.4
G1 X120.756 Y94.769 E159.925
G1 F1000
G1 X121.322 Y94.769 Z0.4
G1 X110.861 Y105.23 E160.665
G1 F1000
G1 X111.427 Y105.23 Z0.4
G1 X121.888 Y94.769 E161.404
G1 F1000
G1 X122.453 Y94.769 Z0.4
G1 X111.992 Y105.23 E162.144
G1 F1000
G1 X112.558 Y105.23 Z0.4
G1 X123.019 Y94.769 E162.884
G1 F1000
G1 X123.585 Y94.769 Z0.4
G1 X113.124 Y105.23 E163.623
G1 F1000
G1 X113.69 Y105.23 Z0.4
G1 X124.15 Y94.769 E164.363
G1 F1000
G1 X124.716 Y94.769 Z0.4
G1 X114.255 Y105.23 E165.103
G1 F1000
G1 X114.821 Y105.23 Z0.4
G1 X125.282 Y94.769 E165.843
G1 F1000
G1 X125.848 Y94.769 Z0.4
G1 X115.387 Y105.23 E166.582
G1 F1000
G1 X115.952 Y105.23 Z0.4
G1 X126.413 Y94.769 E167.322
G1 F1000
G1 X126.979 Y94.769 Z0.4
G1 X116.518 Y105.23 E168.062
G1 F1000
G1 X117.084 Y105.23 Z0.4
G1 X127.545 Y94.769 E168.801
G1 F1000
G1 X128.11 Y94.769 Z0.4
G1 X117.649 Y105.23 E169.541
G1 F1000
G1 X118.215 Y105.23 Z0.4
G1 X128.676 Y94.769 E170.281
G1 F1000
G1 X129.228 Y94.782 Z0.4
G1 X118.781 Y105.23 E171.019
G1 F1000
G1 X119.346 Y105.23 Z0.4
G1 X129.228 Y95.348 E171.718
G1 F1000
G1 X129.228 Y95.914 Z0.4
G1 X119.912 Y105.23 E172.377
G1 F1000
G1 X120.478 Y105.23 Z0.4
G1 X129.228 Y96.479 E172.996
G1 F1000
G1 X129.228 Y97.045 Z0.4
G1 X121.043 Y105.23 E173.575
G1 F1000
G1 X121.609 Y105.23 Z0.4
G1 X129.228 Y97.611 E174.113
